!!!OTL: Medche, waelt te'n Far nien? Naei Motter naei!
!!!ARE: Europa, Mitteleuropa, Deutschland, Siebenbuergen
!!!SCT: D0219
!!!YEM: Copyright 1995, estate of Helmut Schaffrath.
**kern
*ICvox
*Ivox
*M2/4
*k[b-]
*F:
=1
{8f
8e
8f
8g
=2
4a
4b-}
=3
{4cc
8.cc
16e
=4
4f
8r}
{8f
=5
8f
8e
8f
8g
=6
8a
8a
4a}
=7
{8f
8e
8f
8g
=8
8a
8a
4a}
=9
{4cc
8.cc
16e
=10
4f
4r}
==
!!!AGN: Ehestands - Lied
!! Variante in D0219A notiert, Inzipit = Variante zum Lied
!!!ONB: ESAC (Essen Associative Code) Database: DVA
!!!AMT: simple duple
!!!AIN: vox
!!!EED: Helmut Schaffrath
!!!EEV: 1.0
*-
